X:1
T:The Old Monk
M:4/4
L:1/4
K:C
 G,| C3/2 C/2 C| E2 E| D2 D| C2 C| E3/2 E/2 E| G2 G| F2 F| E2 C| A3/2 A/2 A|\
 G2 G| F2 F| E2 E| D2 D/2D/2| D D D| D E ^F| G2 G,| C2| F| E E E| D2 D|\
 C3||
M:4/4
 E3/2 F/2G/2 C/2F/2 E/2| D2 C||
